X: 9915
T: Dessous Les Lauriers Blancs
R: three-two
M: 3/2
K: Eminor
|:E2FG E2D2 E4|G2FG A2B2 G2E2|E2FG E2D2 E4|G2FG A2G2 F4|
E2FG A2B2 G2E2|G2FE D2E2 F4|E2FG A2B2 G2E2|G2FE F2G2 E4|
G2BAG2F2G4|B2AB c2A2 B4|G2BAG2F2G4|B2AB c2A2 B4|
G2ABc2d2B4|ABAG F2 G2 A4|G2ABc2d2B4|ABAF G2 F2 E4:|
B2GA B2G2c4|B2GA B2G2A4|B2GA B2G2c4|ABAF G2 F2 E4|
B2GA B2G2c4|B2GA B2G2A4|B2GA B2G2c4|ABAF G2 F2 E4|
e3e c2c2 d3 c|BAGA BcBA B2B2|e3e c2c2 d3 c|BcBA ABcA BcBA|
B2GA B2G2c4|B2GA B2G2A4|B2GA B2G2c4|ABAF G2 F2 E4|
B2GA B2G2c4|B2GA B2G2A4|B2GA B2G2c4|ABAF G2 F2 E4|
B2GA B2G2c4|B2GA B2G2A4|B2GA B2G2c4|ABAF G2 F2 E4|
e3e c2c2 d3 c|BAGA BcBA B2B2|e3e c2c2 d3 c|BcBA G2 F2 E4|
B2GA B2G2c4|B2GA B2G2A4|B2GA B2G2c4|ABAF G2 F2 E4|

